svgs/solid/file-circle-info.svg

<svg xmlns="http://www.w3.org/2000/svg" viewBox="0 0 576 512"><!--! Font Awesome Pro 6.5.1 by @fontawesome - https://fontawesome.com License - https://fontawesome.com/license (Commercial License) Copyright 2023 Fonticons, Inc. --><path d="M0 64C0 28.7 28.7 0 64 0H224V128c0 17.7 14.3 32 32 32H384v38.6C310.1 219.5 256 287.4 256 368c0 59.1 29.1 111.3 73.7 143.3c-3.2 .5-6.4 .7-9.7 .7H64c-35.3 0-64-28.7-64-64V64zm384 64H256V0L384 128zm48 96a144 144 0 1 1 0 288 144 144 0 1 1 0-288zm0 96a24 24 0 1 0 0-48 24 24 0 1 0 0 48zm-32 48c0 8.8 7.2 16 16 16h0v48h0c-8.8 0-16 7.2-16 16s7.2 16 16 16h16 16c8.8 0 16-7.2 16-16s-7.2-16-16-16V368c0-8.8-7.2-16-16-16H416c-8.8 0-16 7.2-16 16z"/></svg>

<svg xmlns="http://www.w3.org/2000/svg" viewBox="0 0 576 512"><!--! Font Awesome Pro 6.1.1 by @fontawesome - https://fontawesome.com License - https://fontawesome.com/license (Commercial License) Copyright 2022 Fonticons, Inc. --><path d="M0 64C0 28.65 28.65 0 64 0H224V128C224 145.7 238.3 160 256 160H384V198.6C310.1 219.5 256 287.4 256 368C256 427.1 285.1 479.3 329.7 511.3C326.6 511.7 323.3 512 320 512H64C28.65 512 0 483.3 0 448V64zM256 128V0L384 128H256zM288 368C288 288.5 352.5 224 432 224C511.5 224 576 288.5 576 368C576 447.5 511.5 512 432 512C352.5 512 288 447.5 288 368zM432 320C445.3 320 456 309.3 456 296C456 282.7 445.3 272 432 272C418.7 272 408 282.7 408 296C408 309.3 418.7 320 432 320zM416 384L416 432C407.2 432 400 439.2 400 448C400 456.8 407.2 464 416 464H448C456.8 464 464 456.8 464 448C464 439.2 456.8 432 448 432V368C448 359.2 440.8 352 432 352H416C407.2 352 400 359.2 400 368C400 376.8 407.2 384 416 384z"/></svg>
